X: 10053
Q: "Slowish"
M: C|
L: 1/8
K: A
e |\
|: g |\
a>fe>c d2d>f | a>fec B2B>g |\
a>fec d>efa | e>dc>B A2A :|


